Obsidian/actions/24s/fcitx-sayura.svg

<svg height="24" width="24" xmlns="http://www.w3.org/2000/svg"><path d="m2 0c-1.108 0-2 .892-2 2v12c0 1.108.892 2 2 2h12c1.108 0 2-.892 2-2v-12c0-1.108-.892-2-2-2zm8.799 2.0566.873.6973c-.032.0529-.059.1003-.08.1426-.011.0423-.016.1068-.016.1914 0 .1163.038.2465.112.3945.512.3928.816.8609 1.144 1.3653.087.1862.186.3698.201.5664.035.4532-.147.836-.443 1.1425-.296.3066-1.121.459-1.871.459-.201 0-.497-.0272-.719-.0801v3.7035c.19-.053.461-.121.641-.205.19-.085.385-.18.586-.286l.412 1.063c-.254.116-.511.221-.776.316-.253.085-.599.16-.863.223v3.25h-1v-3.061c-.3065.043-1.8267.112-2.1016.112-.983 0-1.839-.143-2.5683-.428-.7294-.296-1.3007-.73-1.7129-1.301-.4017-.5696-.6172-1.3838-.6172-2.24.0285-.5962.2458-1.0485.543-1.4297.6025-.7642 1.319-1.1319 2.1367-1.4375.3488-.0951.7556-.1206 1.2207-.1523.4757-.0422 1.0469-.0625 1.7129-.0625h1.3867c-.0317-.4968-.2146-1.3007-.5-1.5332-.2748-.2326-.6291-.3477-1.0625-.3477-.4123 0-.7241.0798-.9355.2383-.2115.148-.3165.3529-.3165.6172 0 0 .0157.2066.0157.2383l-1.127.1426c-.0211-.0952-.0312-.4922-.0312-.4922 0-.5814.2069-1.0255.6191-1.3321.4123-.3065.9765-.4589 1.6953-.4589 1.0994 0 1.8604.4441 2.2832 1.332.2854-.4863.6724-.9354 1.1584-1.3477zm-.096 1.6172c-.264.3171-.518.629-.592.9356-.074.3065-.111.2402-.111.5996v.6972c.17.034.44.0626.656.0626.349 0 .892-.0576 1.03-.1739.132-.1845.169-.3365.158-.4765-.05-.2757-.162-.5002-.305-.7129-.218-.3889-.563-.6577-.836-.9317zm-2.9784 2.3262c-.7399-.0002-1.3334.0202-1.7773.0625-.4334.0423-.7877.1119-1.0625.207-.2643.0846-.5015.1973-.7129.3243-.5874.4715-.8475.8864-.9024 1.3378-.0219.3035-.0837.5627-.039.7872.2015 1.0134.7787 1.3592 1.5449 1.8262.5602.254 1.3092.379 2.25.379.2854 0 1.7103-.047 1.9746-.078v-4.846z" fill="#bebebe" transform="translate(4 4)"/></svg>

<svg xmlns="http://www.w3.org/2000/svg" width="24" height="24" version="1.1">
 <defs>
  <style id="current-color-scheme" type="text/css">
   .ColorScheme-Text { color:#bebebe; } .ColorScheme-Highlight { color:#4285f4; }
  </style>
 </defs>
 <g transform="matrix(1,0,0,1,4,4)">
  <path class="ColorScheme-Text" d="M 2,0 C 0.892,0 0,0.892 0,2 V 14 C 0,15.108 0.892,16 2,16 H 14 C 15.108,16 16,15.108 16,14 V 2 C 16,0.892 15.108,0 14,0 Z M 10.799,2.0566 11.672,2.7539 C 11.64,2.8068 11.613,2.8542 11.592,2.8965 11.581,2.9388 11.576,3.0033 11.576,3.0879 11.576,3.2042 11.614,3.3344 11.688,3.4824 12.2,3.8752 12.504,4.3433 12.832,4.8477 12.919,5.0339 13.018,5.2175 13.033,5.4141 13.068,5.8673 12.886,6.2501 12.59,6.5566 12.294,6.8632 11.469,7.0156 10.719,7.0156 10.518,7.0156 10.222,6.9884 10,6.9355 V 10.639 C 10.19,10.586 10.461,10.518 10.641,10.434 10.831,10.349 11.026,10.254 11.227,10.148 L 11.639,11.211 C 11.385,11.327 11.128,11.432 10.863,11.527 10.61,11.612 10.264,11.687 10,11.75 V 15 H 9 V 11.939 C 8.6935,11.982 7.1733,12.051 6.8984,12.051 5.9154,12.051 5.0594,11.908 4.3301,11.623 3.6007,11.327 3.0294,10.893 2.6172,10.322 2.2155,9.7524 2,8.9382 2,8.082 2.0285,7.4858 2.2458,7.0335 2.543,6.6523 3.1455,5.8881 3.862,5.5204 4.6797,5.2148 5.0285,5.1197 5.4353,5.0942 5.9004,5.0625 6.3761,5.0203 6.9473,5 7.6133,5 H 9 C 8.9683,4.5032 8.7854,3.6993 8.5,3.4668 8.2252,3.2342 7.8709,3.1191 7.4375,3.1191 7.0252,3.1191 6.7134,3.1989 6.502,3.3574 6.2905,3.5054 6.1855,3.7103 6.1855,3.9746 6.1855,3.9746 6.2012,4.1812 6.2012,4.2129 L 5.0742,4.3555 C 5.0531,4.2603 5.043,3.8633 5.043,3.8633 5.043,3.2819 5.2499,2.8378 5.6621,2.5312 6.0744,2.2247 6.6386,2.0723 7.3574,2.0723 8.4568,2.0723 9.2178,2.5164 9.6406,3.4043 9.926,2.918 10.313,2.4689 10.799,2.0566 Z M 10.703,3.6738 C 10.439,3.9909 10.185,4.3028 10.111,4.6094 10.037,4.9159 10,4.8496 10,5.209 V 5.9062 C 10.17,5.9402 10.44,5.9688 10.656,5.9688 11.005,5.9688 11.548,5.9112 11.686,5.7949 11.818,5.6104 11.855,5.4584 11.844,5.3184 11.794,5.0427 11.682,4.8182 11.539,4.6055 11.321,4.2166 10.976,3.9478 10.703,3.6738 Z M 7.7246,6 C 6.9847,5.9998 6.3912,6.0202 5.9473,6.0625 5.5139,6.1048 5.1596,6.1744 4.8848,6.2695 4.6205,6.3541 4.3833,6.4668 4.1719,6.5938 3.5845,7.0653 3.3244,7.4802 3.2695,7.9316 3.2476,8.2351 3.1858,8.4943 3.2305,8.7188 3.432,9.7322 4.0092,10.078 4.7754,10.545 5.3356,10.799 6.0846,10.924 7.0254,10.924 7.3108,10.924 8.7357,10.877 9,10.846 V 6 Z" style="fill:currentColor"/>
 </g>
</svg>
